!!!OTL: 153. Freylekhs
!!!Genre:	Freylekhs
!!!Mode:	Major
!!!Listening/dance:	dance
!!!:	*g:dor
!!!One_Mode:	no
**kern
*I"P1
*clefG2
*k[f#]
*G:
*M2/4
*>A
!LO:TX:a:i:t=G-major
=1
(16dLL
16g)
(16b
16gJJ)
(16aLL
16g)
(16a
16gJJ)
=2
(16bLL
16cc)
(16b
16aJJ)
((16qqa/LL
16qqb/JJ
16aLL)
16g)
(16b
16gJJ)
=3
(16dLL
16g)
(16b
16gJJ)
(16aLL
16g)
(16a
16gJJ)
=4
16bLL
16cc
(16qqb/LL
16qqcc/JJ
16b)
16aJJ
4g
*>bM
*g:dor
=5:|!|:
*>B
!LO:TX:a:i:t=G-raised-fourth
(8qa/
4g)
(16qqf#X/LL
16qqa/JJ
16gLL)
16fn
16e
16dJJ
=6
(16c#XLL
16d
16e
16dJJ
16c#LL)
(16d
16e
16f#XJJ
=7
8qa/
4g)
((16qqf#X/LL
16qqa/JJ
16gLL)
16fn
16e
16dJJ)
=8
(16c#XLL
16d)
(16A
16B-XJJ)
4G
*>eM
*G:
=9:|!|:
*>C
!LO:TX:a:i:t=G-major
(16aLL
16bn)
(16ccn
16ddJJ)
(16bLL
16g)
(16a
16gJJ)
=10
(16bLL
16cc)
(16b
16aJJ)
(16aLL
16g)
(16b
16gJJ)
=11
(16aLL
16b)
(16cc
16ddJJ)
(16bLL
16g)
(16a
16gJJ)
=12
(16bLL
16cc
16b
16aJJ
4g)
=:|!
*-
